X:451
T:B451-  Cold and Raw (Stingo, Oyle of Barly)
S:for D'Urfey's song [see previous] 
Q:1/4=120
L:1/4
M:3/4
K:C
A2A|e2d|(ef)g|G3|\
A3/2A/A|e2(d/c/)|A3c3|\
A2A|e2d|(ef)g|G3|\
A3/2A/A|e2(d/c/)A3|c3|\
c2c|c3/2B/c|d2e|f2g|\
e2e/e/|a2g|e3|g3|\
c2c/c/|c3/2B/c|d2e|f2g|\
edc|(Bc)^G|A3|e3|]
